X: 13310
T: Flame In The Fiddle, The
R: jig
M: 6/8
K: Fdorian
|:CGG GFE|DB,B, FED|CGG GFE|DEF G3|
Gcc BGG|GFE DB,B,|B,DF GFE|DCC C3:|
|:Gcc B2F|G2E DEF|Gcc BGF|DEF G2F|
Gcc B2F|G2E DEF|GFE DEF|GCC C2F:|
|:GCC CDE|DB,B, B,DF|GCC CDE|DEF G2F|
GCC CDE|DB,B, B,DF|GFE DEF|GCC C2F:|
|:Gcc BGF|GCC GCC|Gcc BGF|DEF DEF|
Gcc BGF|GCC GCC|GFE DEF|GCC C3:|

